X: 31904
T: Peacock Follow The Hen
R: slip jig
M: 9/8
K: Gmajor
B3 BAG DEG|BAB BAB cBA|B3 BAG DEG|A3 ded c2A:|
Bcd gdd gdc|Bcd gdd edc|Bcd gdd edc|A2d ded cBA:|

